X:1
T:[ID 1-137]
T:[ID 1-137]
T:Bezeichnung standardisiert: Drum sag ich noch einmal; Courante In dieser Quelle auch als: Courant
T:Urheber unbekannt Datum in der hier transkribierten schriftlichen Quelle: 1776 - 1791
C:Urheber unbekannt
C:Datum in der hier transkribierten schriftlichen Quelle: 1776 - 1791
L:1/8
M:2/4
K:D
V:1 treble 
V:1
 DFAd | fa a2 | Acce | eg g2 | DFAd | faag | fe/d/ e/g/e/c/ | d2 D2 :: a(f/g/) a(f/g/) | %9
 a(f/g/) a2 | g(e/f/) g(e/f/) | g(e/f/) g2 | DFAd | faag | fe/d/ e/g/e/c/ | d2 D2 :| %16

